web/abstruse/src/assets/images/avatars/avatar_14.svg

<svg width="200px" height="244px" viewBox="0 0 200 244" version="1.1" xmlns="http://www.w3.org/2000/svg" xmlns:xlink="http://www.w3.org/1999/xlink">
    <!-- Generator: Sketch 50.2 (55047) - http://www.bohemiancoding.com/sketch -->
    <desc>Created with Sketch.</desc>
    <defs>
        <path d="M124,144.610951 L124,163 L128,163 C167.764502,163 200,195.235498 200,235 L200,244 L0,244 L0,235 C-4.86974701e-15,195.235498 32.235498,163 72,163 L76,163 L76,144.610951 C58.7626345,136.422372 46.3722246,119.687011 44.3051388,99.8812385 C38.4803105,99.0577866 34,94.0521096 34,88 L34,74 C34,68.0540074 38.3245733,63.1180731 44,62.1659169 L44,56 C44,25.072054 69.072054,5.68137151e-15 100,0 C130.927946,-5.68137151e-15 156,25.072054 156,56 L156,62.1659169 C161.675427,63.1180731 166,68.0540074 166,74 L166,88 C166,94.0521096 161.51969,99.0577866 155.694861,99.8812385 C153.627775,119.687011 141.237365,136.422372 124,144.610951 Z" id="path-1"></path>
        <path d="M171.319631,29.9364358 C205.706337,35.3665707 232,65.13854 232,101.051724 L232,110 L32,110 L32,101.051724 C32,65.1380521 58.2943778,35.3657617 92.6817711,29.9362145 C93.5835973,35.0053598 96.116393,39.8238432 100.236125,43.5389794 L129.321203,69.7676333 C130.843316,71.1402598 133.156684,71.1402598 134.678797,69.7676333 L163.763875,43.5389794 C164.189462,43.1551884 164.601167,42.7562772 164.998197,42.3430127 C168.414164,38.7873666 170.517305,34.4520434 171.319628,29.9364354 Z" id="path-3"></path>
        <rect id="path-5" x="0" y="0" width="264" height="280"></rect>
        <path d="M100.220922,98.1685688 C97.7372796,100.462621 95.0915388,101.494309 91.7475522,100.772863 C91.1721184,100.648833 88.8261446,96.2345713 82.9998364,96.2345713 C77.1735282,96.2345713 74.8278845,100.648833 74.2521206,100.772863 C70.908134,101.494309 68.2623932,100.462621 65.778751,98.1685688 C61.1099132,93.855604 57.2271383,87.9081858 59.5602367,81.4191814 C60.7761418,78.0369425 62.7536795,74.3237342 66.3512135,73.2459109 C70.1927209,72.0955419 75.5862158,73.2439051 79.4574357,72.4582708 C80.711637,72.2035248 82.0817174,71.7508657 82.9998364,71 C83.9179553,71.7508657 85.2883659,72.2035248 86.5419069,72.4582708 C90.413457,73.2439051 95.8069518,72.0955419 99.6484592,73.2459109 C103.245993,74.3237342 105.223531,78.0369425 106.439766,81.4191814 C108.772865,87.9081858 104.89009,93.855604 100.220922,98.1685688 M138.413401,26 C135.043661,34.4002532 136.345062,44.8580348 135.721467,53.6758724 C135.214942,60.8431942 133.725964,71.5857526 127.437467,76.214531 C124.221714,78.5816138 118.368237,82.5598986 114.166372,81.4501943 C111.273889,80.6863848 110.965252,72.290096 107.16415,69.1469801 C102.852532,65.5823153 97.4686641,64.0160432 92.0402296,64.2578722 C89.6978412,64.3622683 84.960516,64.3374908 82.9999339,66.1604584 C81.0393518,64.3374908 76.3023592,64.3622683 73.9599708,64.2578722 C68.5312037,64.0160432 63.1473354,65.5823153 58.8357176,69.1469801 C55.0346162,72.290096 54.7263109,80.6863848 51.8338287,81.4501943 C47.6319636,82.5598986 41.7784869,78.5816138 38.5624005,76.214531 C32.2735714,71.5857526 30.7852585,60.8431942 30.278068,53.6758724 C29.6548058,44.8580348 30.9562066,34.4002532 27.5864665,26 C25.9471604,26 27.0283907,42.1288693 27.0283907,42.1288693 L27.0283907,62.4851205 C27.0596535,77.7732046 36.4953915,100.655445 57.4162495,109.393004 C62.5327203,111.52982 74.1222717,115 82.9999339,115 C91.8775961,115 103.467147,111.860188 108.583618,109.723371 C129.504476,100.985813 138.940214,77.7732046 138.97181,62.4851205 L138.97181,42.1288693 C138.97181,42.1288693 140.052707,26 138.413401,26" id="path-7"></path>
    </defs>
    <g id="Introduction" stroke="none" stroke-width="1" fill="none" fill-rule="evenodd">
        <g id="Intro" transform="translate(-711.000000, -818.000000)">
            <g id="front" transform="translate(295.000000, 782.000000)">
                <g id="Avataaar/Default" transform="translate(384.000000, 0.000000)">
                    <g id="Body" stroke-width="1" fill-rule="evenodd" transform="translate(32.000000, 36.000000)">
                        <mask id="mask-2" fill="white">
                            <use xlink:href="#path-1"></use>
                        </mask>
                        <use fill="#D0C6AC" xlink:href="#path-1"></use>
                        <g id="Skin/👶🏽-03-Brown" mask="url(#mask-2)" fill="#D08B5B">
                            <g transform="translate(-32.000000, 0.000000)" id="Color">
                                <rect x="0" y="0" width="264" height="244"></rect>
                            </g>
                        </g>
                        <path d="M156,94 L156,102 C156,132.927946 130.927946,158 100,158 C69.072054,158 44,132.927946 44,102 L44,94 C44,124.927946 69.072054,150 100,150 C130.927946,150 156,124.927946 156,94 Z" id="Neck-Shadow" fill-opacity="0.100000001" fill="#000000" mask="url(#mask-2)"></path>
                    </g>
                    <g id="Clothing/Shirt-V-Neck" transform="translate(0.000000, 170.000000)">
                        <mask id="mask-4" fill="white">
                            <use xlink:href="#path-3"></use>
                        </mask>
                        <use id="Clothes" fill="#E6E6E6" fill-rule="evenodd" xlink:href="#path-3"></use>
                        <g id="Color/Palette/Black" mask="url(#mask-4)" fill="#262E33" fill-rule="evenodd">
                            <rect id="🖍Color" x="0" y="0" width="264" height="110"></rect>
                        </g>
                    </g>
                    <g id="Face" stroke-width="1" fill-rule="evenodd" transform="translate(76.000000, 82.000000)" fill="#000000">
                        <g id="Mouth/Default" transform="translate(2.000000, 52.000000)" fill-opacity="0.699999988">
                            <path d="M40,15 C40,22.7319865 46.2680135,29 54,29 C61.7319865,29 68,22.7319865 68,15" id="Mouth"></path>
                        </g>
                        <g id="Nose/Default" transform="translate(28.000000, 40.000000)" fill-opacity="0.16">
                            <path d="M16,8 C16,12.418278 21.372583,16 28,16 C34.627417,16 40,12.418278 40,8" id="Nose"></path>
                        </g>
                        <g id="Eyes/Default-😀" transform="translate(0.000000, 8.000000)" fill-opacity="0.599999964">
                            <circle id="Eye" cx="30" cy="22" r="6"></circle>
                            <circle id="Eye" cx="82" cy="22" r="6"></circle>
                        </g>
                        <g id="Eyebrow/Outline/Default" fill-opacity="0.599999964">
                            <g id="I-Browse" transform="translate(12.000000, 6.000000)">
                                <path d="M3.63024536,11.1585767 C7.54515501,5.64986673 18.2779197,2.56083721 27.5230268,4.83118046 C28.5957248,5.0946055 29.6788665,4.43856013 29.9422916,3.36586212 C30.2057166,2.2931641 29.5496712,1.21002236 28.4769732,0.94659732 C17.7403633,-1.69001789 5.31209962,1.88699832 0.369754639,8.84142326 C-0.270109626,9.74178291 -0.0589363917,10.9903811 0.84142326,11.6302454 C1.74178291,12.2701096 2.9903811,12.0589364 3.63024536,11.1585767 Z" id="Eyebrow" fill-rule="nonzero"></path>
                                <path d="M61.6302454,11.1585767 C65.545155,5.64986673 76.2779197,2.56083721 85.5230268,4.83118046 C86.5957248,5.0946055 87.6788665,4.43856013 87.9422916,3.36586212 C88.2057166,2.2931641 87.5496712,1.21002236 86.4769732,0.94659732 C75.7403633,-1.69001789 63.3120996,1.88699832 58.3697546,8.84142326 C57.7298904,9.74178291 57.9410636,10.9903811 58.8414233,11.6302454 C59.7417829,12.2701096 60.9903811,12.0589364 61.6302454,11.1585767 Z" id="Eyebrow" fill-rule="nonzero" transform="translate(73.000154, 6.039198) scale(-1, 1) translate(-73.000154, -6.039198) "></path>
                            </g>
                        </g>
                    </g>
                    <g id="Top" stroke-width="1" fill-rule="evenodd">
                        <mask id="mask-6" fill="white">
                            <use xlink:href="#path-5"></use>
                        </mask>
                        <g id="Mask"></g>
                        <g id="Top/Accesories/Eyepatch" mask="url(#mask-6)">
                            <g transform="translate(-1.000000, 0.000000)">
                                <g id="Facial-Hair/Beard-Light" fill="none" transform="translate(50.000000, 72.000000)">
                                    <mask id="mask-8" fill="white">
                                        <use xlink:href="#path-7"></use>
                                    </mask>
                                    <use id="Lite-Beard" fill="#331B0C" fill-rule="evenodd" xlink:href="#path-7"></use>
                                    <g id="Color/Hair/Brown" mask="url(#mask-8)" fill="#724133" fill-rule="evenodd">
                                        <rect id="Color" x="0" y="0" width="166" height="152"></rect>
                                    </g>
                                </g>
                                <path d="M160.395307,39.7810237 C157.318088,36.6927979 154.11865,43.6386608 152.623361,45.4281124 C149.013122,49.7486528 145.540256,54.182935 141.868413,58.4518947 C134.616309,66.8823544 127.439316,75.3743141 120.233991,83.8401528 C119.140279,85.1257012 119.27271,85.2649028 117.837048,85.3885641 C116.88598,85.4708947 115.563312,84.9802173 114.5737,84.9256608 C111.823607,84.774556 109.112057,85.2348141 106.435756,85.8227012 C101.091389,86.9961608 95.4264863,88.9291124 90.7890799,91.898306 C89.5718308,92.677306 88.7874545,93.5971608 87.4670933,93.841177 C86.3183659,94.0534512 84.794416,93.6295641 83.622299,93.5194592 C81.5412806,93.3237173 78.5378542,92.4726366 76.4953793,92.9137173 C73.9027538,93.4738302 72.9174244,96.6109915 75.5604528,98.0003624 C77.570314,99.0564431 81.5706,98.4761608 83.8235816,98.6447899 C86.3971,98.8372253 85.6120649,98.704306 85.2473843,101.164306 C84.7239177,104.69758 85.5985582,108.646475 87.0885766,111.878201 C90.5482655,119.383185 100.122861,127.335201 108.8551,126.603153 C116.142123,125.992451 122.526834,119.413274 125.519389,113.099935 C127.050916,109.868871 127.954546,106.192096 128.250376,102.628403 C128.438811,100.36183 128.333722,97.9580399 127.684083,95.7632173 C127.362888,94.6783705 126.853916,93.5554995 126.308378,92.5695157 C125.866281,91.7710076 123.908799,89.9203866 123.788886,89.1165882 C123.556307,87.5602415 127.973324,83.3874995 128.816339,82.3443141 C132.788953,77.4276205 136.780344,72.5320882 140.721662,67.5889431 C144.603353,62.7201931 148.506456,57.8640076 152.489612,53.0785802 C154.294237,50.9098786 163.318023,42.7148382 160.395307,39.7810237" id="Badass-Eyepatch" fill="#28354B" fill-rule="evenodd"></path>
                            </g>
                        </g>
                    </g>
                </g>
            </g>
        </g>
    </g>
</svg>

<svg width="200" height="244" xmlns="http://www.w3.org/2000/svg" xmlns:xlink="http://www.w3.org/1999/xlink"><defs><path d="M124 144.611V163h4c39.765 0 72 32.235 72 72v9H0v-9c0-39.765 32.235-72 72-72h4v-18.389c-17.237-8.189-29.628-24.924-31.695-44.73C38.48 99.058 34 94.052 34 88V74c0-5.946 4.325-10.882 10-11.834V56c0-30.928 25.072-56 56-56s56 25.072 56 56v6.166c5.675.952 10 5.888 10 11.834v14c0 6.052-4.48 11.058-10.305 11.881-2.067 19.806-14.458 36.541-31.695 44.73z" id="a"/><path d="M171.32 29.936C205.706 35.366 232 65.14 232 101.052V110H32v-8.948c0-35.914 26.294-65.686 60.682-71.116a23.896 23.896 0 007.554 13.603l29.085 26.229a4 4 0 005.358 0l29.085-26.229a24 24 0 001.234-1.196 23.888 23.888 0 006.322-12.407z" id="c"/><path id="e" d="M0 0h264v280H0z"/><path d="M100.22 98.169c-2.483 2.294-5.128 3.325-8.472 2.604-.576-.124-2.922-4.538-8.748-4.538-5.826 0-8.172 4.414-8.748 4.538-3.344.721-5.99-.31-8.473-2.604-4.67-4.313-8.552-10.26-6.219-16.75 1.216-3.382 3.194-7.095 6.791-8.173 3.842-1.15 9.235-.002 13.106-.788 1.255-.254 2.625-.707 3.543-1.458.918.75 2.288 1.204 3.542 1.458 3.871.786 9.265-.362 13.106.788 3.598 1.078 5.576 4.79 6.792 8.173 2.333 6.49-1.55 12.437-6.22 16.75M138.414 26c-3.37 8.4-2.068 18.858-2.692 27.676-.506 7.167-1.995 17.91-8.284 22.539-3.215 2.367-9.069 6.345-13.27 5.235-2.893-.764-3.202-9.16-7.003-12.303-4.311-3.565-9.695-5.131-15.124-4.89-2.342.105-7.08.08-9.04 1.903-1.96-1.823-6.698-1.798-9.04-1.902-5.429-.242-10.813 1.324-15.124 4.889-3.801 3.143-4.11 11.54-7.002 12.303-4.202 1.11-10.056-2.868-13.272-5.235-6.288-4.63-7.777-15.372-8.284-22.54-.623-8.817.678-19.275-2.692-27.675-1.639 0-.558 16.129-.558 16.129v20.356c.032 15.288 9.467 38.17 30.388 46.908C62.533 111.53 74.122 115 83 115s20.467-3.14 25.584-5.277c20.92-8.737 30.356-31.95 30.388-47.238V42.13S140.052 26 138.413 26" id="g"/></defs><g fill="none" fill-rule="evenodd"><g><mask id="b" fill="#fff"><use xlink:href="#a"/></mask><use fill="#D0C6AC" xlink:href="#a"/><g mask="url(#b)" fill="#D08B5B"><path d="M-32 0h264v244H-32z"/></g><path d="M156 94v8c0 30.928-25.072 56-56 56s-56-25.072-56-56v-8c0 30.928 25.072 56 56 56s56-25.072 56-56z" fill-opacity=".1" fill="#000" mask="url(#b)"/></g><g transform="translate(-32 134)"><mask id="d" fill="#fff"><use xlink:href="#c"/></mask><use fill="#E6E6E6" xlink:href="#c"/><g mask="url(#d)" fill="#262E33"><path d="M0 0h264v110H0z"/></g></g><g fill="#000"><path d="M86 113c0 7.732 6.268 14 14 14s14-6.268 14-14" fill-opacity=".7"/><path d="M88 94c0 4.418 5.373 8 12 8s12-3.582 12-8" fill-opacity=".16"/><g transform="translate(44 54)" fill-opacity=".6"><circle cx="30" cy="22" r="6"/><circle cx="82" cy="22" r="6"/></g><g fill-rule="nonzero" fill-opacity=".6"><path d="M59.63 63.159c3.915-5.51 14.648-8.598 23.893-6.328a2 2 0 00.954-3.884c-10.737-2.637-23.165.94-28.107 7.894a2 2 0 003.26 2.318zM140.37 63.159c-3.915-5.51-14.648-8.598-23.893-6.328a2 2 0 01-.954-3.884c10.737-2.637 23.165.94 28.108 7.894a2 2 0 01-3.26 2.318z"/></g></g><g transform="translate(-32 -36)"><mask id="f" fill="#fff"><use xlink:href="#e"/></mask><g mask="url(#f)"><g transform="translate(49 72)"><mask id="h" fill="#fff"><use xlink:href="#g"/></mask><use fill="#331B0C" xlink:href="#g"/><g mask="url(#h)" fill="#724133"><path d="M0 0h166v152H0z"/></g></g><path d="M159.395 39.781c-3.077-3.088-6.276 3.858-7.772 5.647-3.61 4.32-7.083 8.755-10.755 13.024-7.252 8.43-14.429 16.922-21.634 25.388-1.094 1.286-.961 1.425-2.397 1.549-.951.082-2.274-.409-3.263-.463-2.75-.151-5.462.309-8.138.897-5.345 1.173-11.01 3.106-15.647 6.075-1.217.78-2.002 1.7-3.322 1.943-1.149.212-2.673-.211-3.845-.322-2.08-.195-5.084-1.046-7.127-.605-2.592.56-3.578 3.697-.935 5.086 2.01 1.056 6.01.476 8.264.645 2.573.192 1.788.06 1.423 2.52-.523 3.533.352 7.481 1.842 10.713 3.46 7.505 13.034 15.457 21.766 14.725 7.287-.61 13.672-7.19 16.664-13.503 1.532-3.231 2.436-6.908 2.731-10.472.189-2.266.084-4.67-.566-6.865-.321-1.085-.83-2.208-1.376-3.193-.442-.799-2.4-2.65-2.52-3.453-.232-1.557 4.185-5.73 5.028-6.773 3.973-4.916 7.964-9.812 11.906-14.755 3.881-4.869 7.784-9.725 11.768-14.51 1.804-2.17 10.828-10.364 7.905-13.298" fill="#28354B"/></g></g></g></svg>
